src/Images/vector-step-2.svg

<svg width="186" height="138" viewBox="0 0 186 138" fill="none" xmlns="http://www.w3.org/2000/svg">
<path d="M151.561 118.633C151.471 118.517 151.382 118.401 151.292 118.287C151.186 118.384 151.007 118.47 150.991 118.579C150.975 118.676 151.154 118.797 151.243 118.907C151.349 118.816 151.455 118.725 151.561 118.633ZM123.75 115.144C123.66 115.026 123.571 114.907 123.481 114.789C123.367 114.89 123.188 114.982 123.172 115.094C123.163 115.195 123.335 115.318 123.424 115.432C123.538 115.335 123.644 115.24 123.75 115.144ZM126.094 110.506C125.997 110.386 125.907 110.267 125.818 110.147C125.793 110.37 125.777 110.594 125.753 110.818C125.866 110.714 125.98 110.61 126.094 110.506ZM130.067 111.918C130.303 111.9 130.54 111.881 130.776 111.862C130.711 110.99 130.646 110.118 130.572 109.245C130.336 109.262 130.092 109.279 129.847 109.297C129.921 110.171 129.994 111.044 130.067 111.918ZM159.963 121.503C160.15 121.205 160.337 120.907 160.516 120.609C160.329 120.904 160.142 121.197 159.955 121.49C159.767 121.783 159.588 122.076 159.409 122.368C159.596 122.08 159.775 121.791 159.963 121.503ZM105.472 128.452C102.264 127.04 99.1219 125.409 95.8165 124.266C90.4757 122.421 85.0046 120.956 79.6231 119.226C66.5236 115.015 53.4403 110.753 40.3571 106.496C29.6022 102.999 18.8557 99.4898 8.11717 95.9499C7.42507 95.7236 6.83891 95.196 6.06552 94.7295C6.78196 92.5704 8.06817 92.1087 9.97324 92.8016C12.4563 93.702 14.9396 94.6074 17.4472 95.4378C26.2155 98.3427 34.9917 101.265 43.7927 104.09C54.7347 107.603 65.7257 110.967 76.6679 114.5C86.7225 117.747 96.7202 121.148 106.759 124.433C107.817 124.781 108.989 124.8 110.113 124.972C110.691 125.326 111.269 125.682 111.847 126.036C111.953 125.791 112.059 125.548 112.164 125.304C111.481 125.195 110.797 125.086 110.113 124.976C106.001 122.699 101.947 120.305 97.7622 118.169C90.671 114.549 83.4414 111.217 76.3828 107.537C65.1232 101.662 54.0021 95.5094 42.7261 89.6598C37.2063 86.7949 31.4178 84.4502 25.849 81.6771C21.7945 79.6581 17.895 77.3232 13.9301 75.1282C14.8663 73.3851 15.5421 72.3691 17.26 73.263C22.1611 75.8145 27.1029 78.3017 32.0447 80.7865C35.2362 82.3953 38.4927 83.8925 41.6679 85.5452C48.7183 89.2161 55.6956 93.0434 62.7786 96.642C74.6325 102.664 86.5516 108.566 98.4543 114.499C102.663 116.596 106.36 119.811 111.277 120.332C111.578 120.514 111.879 120.697 112.181 120.879C111.871 120.701 111.57 120.521 111.269 120.341C107.084 117.132 102.932 113.879 98.7065 110.727C92.9261 106.41 87.0726 102.176 81.2595 97.8957C78.1985 95.6414 75.1861 93.3186 72.1004 91.1074C66.2225 86.9105 60.2792 82.8137 54.4255 78.5981C47.9449 73.9347 41.5458 69.1695 35.0896 64.4808C32.9403 62.9226 30.6933 61.51 28.5522 59.9445C27.2088 58.961 25.7108 58.0117 25.4992 56.1782C27.7786 54.2626 29.415 56.1302 30.8398 56.9834C33.9336 58.8299 36.7585 61.1193 39.6731 63.2507C49.8011 70.6488 59.9128 78.0673 70.0406 85.4572C78.4833 91.6146 86.9586 97.7206 95.3931 103.891C101.524 108.382 107.597 112.958 113.744 117.439C114.306 117.85 115.177 117.842 115.901 118.029C116.284 118.42 116.667 118.811 117.049 119.203C117.351 119.379 117.644 119.556 117.945 119.733C117.66 119.54 117.383 119.346 117.098 119.153C116.707 118.771 116.317 118.39 115.918 118.008C114.656 116.58 113.459 115.083 112.116 113.736C89.0998 90.6865 66.0596 67.6584 43.0356 44.6142C41.7167 43.292 40.4873 41.8762 39.266 40.5548C40.406 38.6001 41.676 38.894 42.7995 39.7822C44.0044 40.7315 45.0303 41.908 46.1213 42.9989C68.3392 65.2128 90.549 87.434 112.775 109.632C114.118 110.971 115.641 112.133 117.074 113.377C117.456 113.764 117.839 114.152 118.23 114.539C118.523 114.723 118.816 114.906 119.109 115.09C118.816 114.907 118.523 114.725 118.23 114.542C117.839 114.156 117.448 113.771 117.065 113.386C116.756 112.514 116.634 111.51 116.113 110.794C111.521 104.502 106.864 98.2604 102.232 92.0045C99.0648 87.7352 95.849 83.5025 92.7472 79.1891C88.424 73.1881 84.2475 67.0861 79.9 61.1013C73.1019 51.7298 66.2143 42.4225 59.3674 33.081C58.1298 31.3933 56.8028 29.7488 55.8095 27.9218C55.5002 27.347 56.1758 26.2406 56.3956 25.3784C57.2587 25.6048 58.4962 25.5453 58.9114 26.1022C63.9184 32.7912 68.7787 39.586 73.7124 46.3247C80.1034 55.0523 86.5841 63.7164 92.9181 72.4848C96.134 76.9348 99.0404 81.6136 102.232 86.0833C107.524 93.4993 112.922 100.844 118.336 108.176C118.865 108.9 119.801 109.332 120.55 109.899C120.933 110.673 121.323 111.447 122.154 112.51C122.471 112.628 122.357 112.487 122.243 112.346C122.105 112.483 121.975 112.619 121.845 112.756C121.975 112.878 122.097 113.067 122.252 113.1C122.341 113.12 122.488 112.904 122.154 112.51C121.315 111.45 120.933 110.679 120.542 109.908C120.371 109.173 120.347 108.366 120.005 107.718C115.364 98.7408 110.593 89.8341 106.05 80.8093C102.899 74.5624 100.221 68.081 97.054 61.8439C91.5586 50.9913 85.8269 40.2569 80.2256 29.4549C77.8727 24.9095 75.6094 20.3177 72.9798 15.113C73.4031 14.8003 74.144 14.2508 74.8034 13.7622C75.3653 13.9169 75.9107 13.9048 76.041 14.1295C80.877 22.7072 85.1838 31.548 89.4661 40.4222C95.0105 51.9089 101.418 62.9812 107.361 74.2758C108.501 76.4431 109.103 78.8944 110.227 81.073C111.977 84.4542 114.078 87.6522 115.812 91.0382C118.743 96.7673 121.511 102.584 124.938 109.57C124.938 107.127 125.329 105.767 124.873 104.804C120.827 96.195 118.857 86.9015 115.869 77.9451C112.295 67.2066 108.542 56.5153 105.375 45.6546C102.786 36.7829 98.6414 28.4315 97.0864 19.1992C96.4677 15.5494 94.3022 12.1796 93.0972 8.59659C92.8367 7.8215 93.6753 6.68008 94.1475 5.26996C97.5017 8.88885 98.3973 13.0312 99.6674 16.8878C103.689 29.0739 107.402 41.3593 111.326 53.5746C114.851 64.537 118.498 75.4604 122.113 86.3943C124.417 93.3666 126.762 100.327 129.481 107.226C128.651 95.3946 125.94 83.8289 124.645 72.0621C123.351 60.2587 120.721 48.6059 118.816 36.8627C116.919 25.1383 115.193 13.3853 113.337 1.23672C114.696 1.12352 115.567 1.05189 116.862 0.943637C122.488 36.5086 128.081 71.857 133.674 107.205C133.926 107.191 134.187 107.175 134.439 107.161V0H137.965V111.796C138.16 111.801 138.364 111.807 138.559 111.813C139.112 107.771 139.609 103.719 140.244 99.6909C141.457 92.0379 142.776 84.4021 144.014 76.7549C144.714 72.4643 145.341 68.1624 146.033 63.8711C147.352 55.6686 148.703 47.4686 150.047 39.2686C150.624 35.7238 151.52 32.1985 151.732 28.6335C152.025 23.6843 152.969 18.8881 153.954 14.0611C154.638 10.7255 154.882 7.29885 155.314 3.91115C155.526 2.21205 156.242 1.03567 158.522 1.1024C158.627 2.40254 158.986 3.73286 158.798 4.98254C158.212 8.89857 157.341 12.7707 156.739 16.6859C156.169 20.4358 155.941 24.2411 155.322 27.9813C153.954 36.1715 152.375 44.326 151.007 52.5154C150.38 56.254 150.047 60.0422 149.558 63.8052C148.768 69.816 148.133 75.8504 147.124 81.8245C146.285 86.834 144.811 91.7375 143.989 96.7494C143.305 100.959 143.151 105.257 143.11 109.517C154.19 75.4481 165.271 41.3771 176.392 7.31754C176.555 6.8168 177.117 6.44804 177.63 5.87241C179.453 6.31939 180.227 7.74012 179.543 9.20551C176.563 15.5721 175.765 22.6104 172.948 29.0812C170.18 35.4429 168.845 42.4112 166.655 49.0424C163.472 58.7192 159.499 68.1788 156.967 78.016C154.752 86.6305 150.592 94.5976 149.208 103.46C148.874 105.599 146.896 107.428 147.205 109.904C146.863 110.484 146.513 111.064 146.163 111.645C146.399 111.746 146.643 111.847 146.879 111.949C146.994 111.267 147.099 110.585 147.205 109.904C147.946 108.852 148.817 107.87 149.395 106.735C153.156 99.2863 156.804 91.7774 160.589 84.3402C164.196 77.2572 168.006 70.2759 171.597 63.1831C178.981 48.592 186.251 33.9457 193.627 19.353C194.637 17.3568 196.005 15.5421 197.429 13.2909C198.406 14.2491 198.944 14.7816 199.799 15.6169C195.207 24.3355 190.68 32.893 186.194 41.4676C185.494 42.8052 184.981 44.2413 184.314 45.5969C183.149 47.9709 181.944 50.3303 180.715 52.6709C180.088 53.8482 179.29 54.9318 178.696 56.1229C172.777 68.0306 166.891 79.9577 160.98 91.8686C158.619 96.6134 156.193 101.322 153.849 106.073C153.441 106.9 153.279 107.85 153.002 108.745C151.528 109.311 150.559 110.16 151.3 113.252C152.155 110.985 152.578 109.865 153.002 108.745C154.288 107.619 155.827 106.68 156.812 105.335C160.614 100.12 164.204 94.7482 167.95 89.4865C172.68 82.8406 177.467 76.2305 182.262 69.6327C186.732 63.4819 191.275 57.3848 195.744 51.2323C201.549 43.2472 207.272 35.2044 213.118 27.2493C214.217 25.7481 215.642 24.1735 218.011 26.261C215.007 30.6435 212.108 35.048 209.031 39.3264C204.708 45.3412 200.238 51.2495 195.858 57.2252C189.573 65.8063 183.329 74.4191 177.035 82.9953C170.522 91.8816 163.944 100.729 157.447 109.632C156.926 110.348 156.796 111.353 156.486 112.224C156.095 112.61 155.713 112.997 155.322 113.383C155.151 113.682 154.972 113.982 154.801 114.281C154.972 113.981 155.151 113.68 155.322 113.379C155.705 112.993 156.095 112.606 156.478 112.22C158.033 112.409 158.888 111.457 159.824 110.39C161.412 108.566 163.227 106.937 164.872 105.149C166.272 103.623 167.306 101.659 168.935 100.475C172.053 98.2059 174.226 95.1007 176.88 92.436C193.619 75.6411 210.399 58.8821 227.186 42.1335C228.253 41.0653 229.433 40.0599 230.72 39.2888C231.151 39.0333 232.185 39.4509 232.723 39.8539C233.04 40.0859 233.146 41.0385 232.926 41.4341C232.389 42.416 231.705 43.371 230.899 44.1501C224.931 49.9257 218.85 55.5921 212.939 61.4263C209.861 64.4614 207.134 67.8473 204.097 70.9297C200.369 74.7163 196.444 78.3067 192.691 82.0664C188.832 85.927 185.112 89.9236 181.269 93.8005C175.163 99.9628 168.992 106.061 162.886 112.222C161.819 113.294 160.931 114.538 159.963 115.703C159.58 116.089 159.189 116.476 158.807 116.863C158.416 117.249 158.033 117.635 157.642 118.023C157.455 118.315 157.268 118.608 157.081 118.901C157.268 118.605 157.455 118.309 157.634 118.014C158.025 117.627 158.408 117.241 158.798 116.855C159.181 116.469 159.572 116.083 159.955 115.696C161.941 114.658 164.082 113.843 165.882 112.541C173.73 106.835 181.489 100.993 189.272 95.1911C193.847 91.7782 198.162 87.9428 203.039 85.0282C208.469 81.7814 213.191 77.6668 218.329 74.0747C226.592 68.3 234.75 62.3853 242.891 56.4494C244.275 55.4398 245.415 54.9619 247.353 56.4428C245.912 57.962 244.87 59.7434 243.323 60.5738C237.046 63.9427 232.177 69.2004 226.291 73.0399C214.657 80.6327 203.869 89.3937 192.431 97.2493C184.126 102.95 176.164 109.16 168.063 115.158C166.142 116.578 164.269 118.058 162.666 119.983C170.872 116.598 178.566 112.286 186.414 108.298C194.417 104.237 202.412 100.171 210.431 96.1591C218.418 92.1657 226.559 88.4606 234.408 84.2173C242.11 80.0538 249.771 75.8894 258.685 72.2534C257.993 75.7363 256.381 76.7899 254.427 77.7156C250.463 79.597 246.538 81.5746 242.655 83.6156C235.776 87.2288 228.985 91.0309 222.065 94.5512C210.7 100.326 199.229 105.892 187.847 111.638C181.431 114.881 175.122 118.352 168.723 121.635C166.004 123.027 163.179 124.205 160.663 126.204C162.617 125.668 164.628 125.305 166.5 124.568C179.168 119.578 192.252 115.909 205.286 112.054C209.446 110.824 213.395 108.894 217.539 107.578C228.863 103.98 240.261 100.598 251.594 97.0017C255.193 95.8596 258.694 94.3786 262.186 92.9237C263.88 92.2203 265.142 92.414 266.428 94.3119C265.622 94.8769 264.881 95.6731 263.977 95.9808C253.613 99.5036 243.233 102.982 232.836 106.412C222.993 109.661 213.126 112.833 203.267 116.048C190.184 120.316 177.1 124.595 163.187 129.142C164.88 129.319 165.873 129.664 166.744 129.476C173.958 127.924 181.204 126.669 188.572 126.01C194.018 125.523 199.408 124.339 204.814 123.402C208.152 122.822 211.473 122.107 214.811 121.483C218.882 120.72 222.945 119.855 227.048 119.287C230.427 118.819 233.814 118.892 237.249 118.153C246.286 116.207 255.461 114.883 264.604 113.455C266.64 113.137 268.764 113.408 270.93 113.408C271.296 115.772 270.181 116.575 268.537 116.834C260.876 118.041 253.19 119.113 245.545 120.411C239.789 121.387 234.123 122.998 228.343 123.634C224.182 124.091 219.998 124.174 215.854 124.98C210.472 126.026 205.042 126.779 199.644 127.75C196.876 128.248 194.165 129.118 191.38 129.508C187.236 130.088 183.052 130.347 178.9 130.823C175.513 131.211 172.118 131.639 168.756 132.196C166.728 132.531 164.75 133.146 161.444 133.952C164.286 134.077 165.89 134.207 167.485 134.208C200.515 134.22 233.553 134.217 266.583 134.22C268.13 134.22 269.758 133.959 271.183 134.374C272.184 134.664 272.9 135.905 274.48 137.44H0.195386C0.138437 136.579 0.0895475 135.715 0 134.355H110.683C110.707 134.051 110.731 133.746 110.756 133.442C104.381 132.555 98.0145 131.692 91.648 130.776C86.0304 129.967 80.4128 129.173 74.8197 128.233C71.6691 127.703 68.5915 126.723 65.4327 126.238C57.7717 125.063 50.1024 123.83 42.425 122.829C33.5997 121.678 24.8966 120.092 16.2178 118.204C12.5216 117.4 8.67888 117.206 4.893 116.918C2.97989 116.772 1.53059 116.379 1.25381 113.938C3.41945 112.833 5.79679 113.17 7.94603 113.458C12.9939 114.135 17.9845 115.208 22.9832 116.166C25.7595 116.698 28.4951 117.467 31.2876 117.864C35.2443 118.427 39.2498 118.621 43.1984 119.198C49.3614 120.096 55.5002 121.161 61.6388 122.197C66.8574 123.077 72.0761 123.96 77.2703 124.945C84.7034 126.354 92.3319 126.37 99.7 128.296C101.515 128.77 103.543 128.422 105.472 128.452C106.237 130.172 107.41 129.736 109.25 128.77C107.605 128.631 106.539 128.541 105.472 128.452Z" fill="#C3F402"/>
</svg>

<svg width="186" height="138" fill="none" xmlns="http://www.w3.org/2000/svg"><path d="M151.561 118.633c-.09-.116-.179-.232-.269-.346-.106.097-.285.183-.301.292-.016.097.163.218.252.328l.318-.274zm-27.811-3.489-.269-.355c-.114.101-.293.193-.309.305-.009.101.163.224.252.338.114-.097.22-.192.326-.288zm2.344-4.638c-.097-.12-.187-.239-.276-.359-.025.223-.041.447-.065.671l.341-.312zm3.973 1.412.709-.056c-.065-.872-.13-1.744-.204-2.617l-.725.052.22 2.621zm29.896 9.585c.187-.298.374-.596.553-.894l-.561.881c-.188.293-.367.586-.546.878.187-.288.366-.577.554-.865zm-54.491 6.949c-3.208-1.412-6.35-3.043-9.655-4.186-5.341-1.845-10.812-3.31-16.194-5.04-13.1-4.211-26.183-8.473-39.266-12.73A8362.76 8362.76 0 0 1 8.117 95.95c-.692-.226-1.278-.754-2.051-1.22.716-2.16 2.002-2.621 3.907-1.928 2.483.9 4.967 1.805 7.474 2.636 8.768 2.905 17.545 5.827 26.346 8.652 10.942 3.513 21.933 6.877 32.875 10.41 10.054 3.247 20.052 6.648 30.091 9.933 1.058.348 2.23.367 3.354.539l1.734 1.064.317-.732-2.051-.328c-4.112-2.277-8.166-4.671-12.35-6.807-7.092-3.62-14.322-6.952-21.38-10.632-11.26-5.875-22.38-12.028-33.657-17.877-5.52-2.865-11.308-5.21-16.877-7.983-4.055-2.019-7.954-4.354-11.919-6.549.936-1.743 1.612-2.759 3.33-1.865 4.901 2.551 9.843 5.039 14.785 7.523 3.191 1.61 6.448 3.106 9.623 4.76 7.05 3.67 14.028 7.497 21.11 11.096 11.854 6.022 23.774 11.924 35.676 17.857 4.209 2.097 7.906 5.312 12.823 5.833l.904.547c-.31-.178-.611-.358-.912-.538-4.185-3.209-8.337-6.462-12.563-9.614-5.78-4.317-11.633-8.551-17.447-12.831-3.06-2.255-6.073-4.577-9.159-6.789-5.877-4.197-11.82-8.293-17.674-12.509-6.481-4.663-12.88-9.428-19.336-14.117-2.15-1.558-4.397-2.971-6.538-4.536-1.343-.984-2.841-1.933-3.053-3.767 2.28-1.915 3.916-.048 5.34.805 3.095 1.847 5.92 4.136 8.834 6.268 10.128 7.398 20.24 14.816 30.368 22.206 8.442 6.158 16.918 12.264 25.352 18.434 6.131 4.491 12.204 9.067 18.351 13.548.562.411 1.433.403 2.157.59l1.148 1.174c.302.176.595.353.896.53-.285-.193-.562-.387-.847-.58-.391-.382-.781-.763-1.18-1.145-1.262-1.428-2.459-2.925-3.802-4.272C89.1 90.686 66.06 67.658 43.036 44.614c-1.32-1.322-2.549-2.738-3.77-4.06 1.14-1.954 2.41-1.66 3.534-.772 1.204.95 2.23 2.126 3.321 3.217 22.218 22.214 44.428 44.435 66.654 66.633 1.343 1.339 2.866 2.501 4.299 3.745.382.387.765.775 1.156 1.162l.879.551-.879-.548c-.391-.386-.782-.771-1.165-1.156-.309-.872-.431-1.876-.952-2.592-4.592-6.292-9.249-12.534-13.881-18.79-3.167-4.269-6.383-8.502-9.485-12.815-4.323-6-8.5-12.103-12.847-18.088-6.798-9.371-13.686-18.678-20.533-28.02-1.237-1.688-2.564-3.332-3.557-5.16-.31-.574.366-1.68.586-2.543.863.227 2.1.167 2.515.724 5.007 6.69 9.868 13.484 14.801 20.223 6.391 8.727 12.872 17.391 19.206 26.16 3.216 4.45 6.122 9.129 9.314 13.598 5.292 7.416 10.69 14.761 16.104 22.093.529.724 1.465 1.156 2.214 1.723.383.774.773 1.548 1.604 2.611.317.118.203-.023.089-.164a18.96 18.96 0 0 0-.398.41c.13.122.252.311.407.344.089.02.236-.196-.098-.59-.839-1.06-1.221-1.831-1.612-2.602-.171-.735-.195-1.542-.537-2.19-4.641-8.977-9.412-17.884-13.955-26.909-3.151-6.247-5.829-12.728-8.996-18.965-5.495-10.853-11.227-21.587-16.828-32.39-2.353-4.544-4.617-9.136-7.246-14.341l1.823-1.35c.562.154 1.108.142 1.238.367 4.836 8.577 9.143 17.418 13.425 26.292 5.544 11.487 11.952 22.56 17.895 33.854 1.14 2.167 1.742 4.618 2.866 6.797 1.75 3.381 3.851 6.58 5.585 9.965 2.931 5.73 5.699 11.546 9.126 18.532 0-2.443.391-3.803-.065-4.766-4.046-8.609-6.016-17.903-9.004-26.859-3.574-10.738-7.327-21.43-10.494-32.29-2.589-8.872-6.734-17.224-8.289-26.456-.618-3.65-2.784-7.02-3.989-10.602-.26-.775.578-1.917 1.05-3.327 3.355 3.619 4.25 7.761 5.52 11.618 4.022 12.186 7.735 24.471 11.659 36.687 3.525 10.962 7.172 21.885 10.787 32.82 2.304 6.972 4.649 13.932 7.368 20.831-.83-11.831-3.541-23.397-4.836-35.164-1.294-11.803-3.924-23.456-5.829-35.2-1.897-11.724-3.623-23.477-5.479-35.625l3.525-.293 16.812 106.261.765-.044V0h3.526v111.796l.594.017c.553-4.042 1.05-8.094 1.685-12.122 1.213-7.653 2.532-15.289 3.77-22.936.7-4.29 1.327-8.593 2.019-12.884 1.319-8.202 2.67-16.402 4.014-24.602.577-3.545 1.473-7.07 1.685-10.635.293-4.95 1.237-9.746 2.222-14.573.684-3.335.928-6.762 1.36-10.15.212-1.699.928-2.875 3.208-2.809.105 1.3.464 2.63.276 3.88-.586 3.917-1.457 7.789-2.059 11.704-.57 3.75-.798 7.555-1.417 11.295-1.368 8.19-2.947 16.345-4.315 24.534-.627 3.739-.96 7.527-1.449 11.29-.79 6.011-1.425 12.045-2.434 18.02-.839 5.009-2.313 9.912-3.135 14.924-.684 4.21-.838 8.508-.879 12.768 11.08-34.069 22.161-68.14 33.282-102.2.163-.5.725-.869 1.238-1.445 1.823.447 2.597 1.868 1.913 3.334-2.98 6.366-3.778 13.404-6.595 19.875-2.768 6.362-4.103 13.33-6.293 19.961-3.183 9.677-7.156 19.137-9.688 28.974-2.215 8.614-6.375 16.582-7.759 25.444-.334 2.139-2.312 3.968-2.003 6.444-.342.58-.692 1.16-1.042 1.741.236.101.48.202.716.304.115-.682.22-1.364.326-2.045.741-1.052 1.612-2.034 2.19-3.169 3.761-7.449 7.409-14.958 11.194-22.395 3.607-7.083 7.417-14.064 11.008-21.157 7.384-14.591 14.654-29.237 22.03-43.83 1.01-1.996 2.378-3.81 3.802-6.062.977.958 1.515 1.49 2.37 2.326-4.592 8.718-9.119 17.276-13.605 25.85-.7 1.338-1.213 2.774-1.88 4.13a290.897 290.897 0 0 1-3.599 7.074c-.627 1.177-1.425 2.26-2.019 3.452-5.919 11.908-11.805 23.835-17.716 35.746-2.361 4.744-4.787 9.453-7.131 14.204-.408.827-.57 1.777-.847 2.672-1.474.566-2.443 1.415-1.702 4.507.855-2.267 1.278-3.387 1.702-4.507 1.286-1.126 2.825-2.065 3.81-3.41 3.802-5.215 7.392-10.587 11.138-15.848 4.73-6.646 9.517-13.256 14.312-19.854 4.47-6.151 9.013-12.248 13.482-18.4 5.805-7.986 11.528-16.029 17.374-23.984 1.099-1.5 2.524-3.075 4.893-.988-3.004 4.383-5.903 8.787-8.98 13.065-4.323 6.015-8.793 11.923-13.173 17.9-6.285 8.58-12.529 17.193-18.823 25.77-6.513 8.886-13.091 17.733-19.588 26.636-.521.716-.651 1.721-.961 2.592-.391.386-.773.773-1.164 1.159-.171.299-.35.599-.521.898.171-.3.35-.601.521-.902.383-.386.773-.773 1.156-1.159 1.555.189 2.41-.763 3.346-1.83 1.588-1.824 3.403-3.453 5.048-5.241 1.4-1.526 2.434-3.49 4.063-4.674 3.118-2.27 5.291-5.374 7.945-8.039a25300.08 25300.08 0 0 1 50.306-50.303c1.067-1.068 2.247-2.073 3.534-2.844.431-.256 1.465.162 2.003.565.317.232.423 1.184.203 1.58-.537.982-1.221 1.937-2.027 2.716-5.968 5.776-12.049 11.442-17.96 17.276-3.078 3.035-5.805 6.421-8.842 9.504-3.728 3.786-7.653 7.377-11.406 11.136-3.859 3.861-7.579 7.858-11.422 11.734-6.106 6.163-12.277 12.261-18.383 18.422-1.067 1.072-1.955 2.316-2.923 3.481-.383.386-.774.773-1.156 1.16-.391.386-.774.772-1.165 1.16l-.561.878c.187-.296.374-.592.553-.887.391-.387.774-.773 1.164-1.159.383-.386.774-.772 1.157-1.159 1.986-1.038 4.127-1.853 5.927-3.155 7.848-5.706 15.607-11.548 23.39-17.35 4.575-3.413 8.89-7.248 13.767-10.163 5.43-3.247 10.152-7.361 15.29-10.953 8.263-5.775 16.421-11.69 24.562-17.626 1.384-1.01 2.524-1.487 4.462-.006-1.441 1.519-2.483 3.3-4.03 4.13-6.277 3.37-11.146 8.627-17.032 12.467-11.634 7.593-22.422 16.354-33.86 24.21-8.305 5.7-16.267 11.91-24.368 17.908-1.921 1.42-3.794 2.9-5.397 4.825 8.206-3.385 15.9-7.697 23.748-11.685 8.003-4.061 15.998-8.127 24.017-12.139 7.987-3.993 16.128-7.698 23.977-11.942 7.702-4.163 15.363-8.328 24.277-11.964-.692 3.483-2.304 4.537-4.258 5.463a322.964 322.964 0 0 0-11.772 5.9c-6.879 3.613-13.67 7.415-20.59 10.935-11.365 5.775-22.836 11.341-34.218 17.087-6.416 3.243-12.725 6.714-19.124 9.997-2.719 1.392-5.544 2.57-8.06 4.569 1.954-.536 3.965-.899 5.837-1.636 12.668-4.99 25.752-8.659 38.786-12.514 4.16-1.23 8.109-3.16 12.253-4.476 11.324-3.598 22.722-6.98 34.055-10.576 3.599-1.142 7.1-2.623 10.592-4.078 1.694-.704 2.956-.51 4.242 1.388-.806.565-1.547 1.361-2.451 1.669a3650.893 3650.893 0 0 1-31.141 10.431c-9.843 3.249-19.71 6.421-29.569 9.636-13.083 4.268-26.167 8.547-40.08 13.094 1.693.177 2.686.522 3.557.334 7.214-1.552 14.46-2.807 21.828-3.466 5.446-.487 10.836-1.671 16.242-2.608 3.338-.58 6.659-1.295 9.997-1.919 4.071-.763 8.134-1.628 12.237-2.196 3.379-.468 6.766-.395 10.201-1.134 9.037-1.946 18.212-3.27 27.355-4.698 2.036-.318 4.16-.047 6.326-.047.366 2.364-.749 3.167-2.393 3.426-7.661 1.207-15.347 2.279-22.992 3.577-5.756.976-11.422 2.587-17.202 3.223-4.161.457-8.345.54-12.489 1.346-5.382 1.046-10.812 1.799-16.21 2.77-2.768.498-5.479 1.368-8.264 1.758-4.144.58-8.328.839-12.48 1.315-3.387.388-6.782.816-10.144 1.373-2.028.335-4.006.95-7.312 1.756 2.842.125 4.446.255 6.041.256 33.03.012 66.068.009 99.098.012 1.547 0 3.175-.261 4.6.154 1.001.29 1.717 1.531 3.297 3.066H.195c-.057-.861-.105-1.725-.195-3.085h110.683l.073-.913c-6.375-.887-12.742-1.75-19.108-2.666-5.618-.809-11.235-1.603-16.828-2.543-3.15-.53-6.228-1.51-9.387-1.995-7.661-1.175-15.33-2.408-23.008-3.409-8.825-1.151-17.528-2.737-26.207-4.625-3.696-.804-7.54-.998-11.325-1.286-1.913-.146-3.362-.539-3.64-2.98 2.166-1.105 4.544-.768 6.693-.48 5.048.677 10.039 1.75 15.037 2.708 2.776.532 5.512 1.301 8.305 1.698 3.956.563 7.962.757 11.91 1.334 6.163.898 12.302 1.963 18.44 2.999 5.22.88 10.438 1.763 15.632 2.748 7.433 1.409 15.062 1.425 22.43 3.351 1.815.474 3.843.126 5.772.156.765 1.72 1.938 1.284 3.778.318a3517.84 3517.84 0 0 0-3.778-.318z" fill="#C3F402"/></svg>
